img/icon-smart.svg

<svg width="130" height="130" viewBox="0 0 130 130" fill="none" xmlns="http://www.w3.org/2000/svg">
<g filter="url(#filter0_d_585_2046)">
<path fill-rule="evenodd" clip-rule="evenodd" d="M61.1808 15.0587C55.589 15.6325 51.3346 16.6156 46.8381 18.3731C35.1892 22.9257 25.514 31.8652 19.968 43.1995C17.5857 48.0677 16.0632 53.1182 15.2456 58.8621C14.9181 61.1631 14.9181 68.8866 15.2456 71.1876C16.8142 82.2089 21.3418 91.6861 28.7874 99.5329C36.6726 107.843 46.9751 113.062 58.832 114.754C61.1326 115.082 68.8569 115.082 71.163 114.754C76.9177 113.936 81.9717 112.413 86.8215 110.036C100.928 103.12 111.074 90.056 114.106 74.9048C114.842 71.2265 115 69.4779 115 65.0249C115 60.5718 114.842 58.8232 114.106 55.1449C112.134 45.2902 106.958 35.9451 99.5259 28.8229C95.828 25.2791 91.6948 22.4133 86.8215 20.0147C82.148 17.7143 77.4746 16.265 72.0438 15.4318C70.0742 15.1295 62.8934 14.883 61.1808 15.0587ZM69.01 21.0072C78.7562 21.9001 88.1411 26.1456 95.3923 32.9418C101.325 38.5024 106.005 46.5415 107.929 54.4758C108.884 58.417 109.122 60.5172 109.122 65.0249C109.122 69.5325 108.884 71.6327 107.929 75.5739C106.389 81.9268 103.104 88.3445 98.7086 93.5887C92.8993 100.52 84.379 105.799 75.5513 107.937C71.6083 108.892 69.5072 109.13 64.9975 109.13C60.4842 109.13 58.3893 108.892 54.4281 107.933C46.6795 106.058 38.5731 101.389 33.1539 95.6811C24.2355 86.2879 19.7991 73.6754 20.9601 61.0142C22.0063 49.6047 27.7119 38.6475 36.4209 31.3221C45.5032 23.6828 57.3359 19.9376 69.01 21.0072ZM61.0078 27.0893C52.2827 28.0091 44.2454 31.8867 37.9812 38.1981C33.3759 42.8384 30.3405 47.8957 28.4805 54.0278C27.2699 58.0193 26.9638 60.2383 26.9638 65.0249C26.9638 69.8226 27.2695 72.0293 28.4926 76.0616C30.3311 82.1234 33.4139 87.2516 37.9818 91.8477C49.5834 103.52 67.002 106.475 81.7325 99.269C92.709 93.8992 100.393 83.6772 102.62 71.4811C103.21 68.251 103.21 61.7987 102.62 58.5686C98.9859 38.669 80.9057 24.9915 61.0078 27.0893ZM70.4566 33.2186C77.171 34.4414 82.9949 37.4549 87.6936 42.1376C92.5296 46.9567 95.5585 52.7418 96.8356 59.5985C97.3019 62.1014 97.3019 67.9483 96.8356 70.4512C95.5679 77.2576 92.4906 83.1441 87.7062 87.915C83.0544 92.5537 77.1768 95.5925 70.4263 96.8487C67.9223 97.3147 62.0727 97.3147 59.5688 96.8487C52.7023 95.5709 46.8964 92.5318 42.0994 87.7045C27.7821 73.2972 30.2086 49.493 47.1498 38.1606C51.2551 35.4145 56.2308 33.5919 61.4108 32.9367C63.2857 32.6994 68.498 32.862 70.4566 33.2186ZM63.6701 38.9273C62.4566 39.5463 62.1675 40.2148 62.0931 42.5754C62.0271 44.6737 62.0256 44.6796 61.5059 44.7913C57.8152 45.5856 54.8058 47.2534 52.8716 49.5765C48.9723 54.26 49.6117 60.2005 54.4627 64.355C55.7765 65.4801 58.585 66.8756 60.4957 67.3526L61.9637 67.7192L62.0156 73.5271L62.0674 79.3349L61.6241 79.2058C60.5102 78.8814 58.7103 77.9146 57.9618 77.2388C56.9315 76.3083 56.3928 75.2662 56.1859 73.802C55.9084 71.8393 54.6745 70.7494 52.9503 70.9436C50.1508 71.259 49.5162 74.4161 51.4735 78.2916C53.0263 81.3661 56.5619 83.9793 60.4957 84.9599L61.9637 85.3257L62.0616 87.3541C62.1767 89.7384 62.4828 90.4617 63.6237 91.0434C64.6002 91.5415 65.3949 91.5415 66.3714 91.0434C67.5123 90.4617 67.8184 89.7384 67.9335 87.3541L68.0313 85.3257L69.4993 84.9548C71.0607 84.5604 73.2959 83.5782 74.5267 82.7462C75.9028 81.8157 77.6828 79.8722 78.389 78.5289C79.9922 75.4794 80.0891 72.569 78.6855 69.6225C76.9482 65.9755 73.3926 63.4595 68.4717 62.3948L67.9335 62.2784V56.4895V50.7005L68.4717 50.8269C69.6968 51.1145 71.4322 52.1465 72.3863 53.155C73.3738 54.1988 73.8021 55.1461 73.8042 56.2921C73.806 57.2001 74.5646 58.3266 75.4691 58.7643C76.491 59.2589 76.9964 59.2565 78.0379 58.7525C79.9231 57.8403 80.1813 55.1545 78.6855 52.0146C76.9482 48.3676 73.3926 45.8517 68.4717 44.787L67.9335 44.6706V42.7963C67.9335 40.6683 67.6532 39.8364 66.71 39.165C65.9319 38.6113 64.5082 38.5 63.6701 38.9273ZM62.0616 56.234V61.7253L61.6212 61.597C60.5045 61.272 58.7071 60.3042 57.9454 59.6177C57.0203 58.784 56.194 57.2287 56.1926 56.3188C56.1906 54.8188 57.1644 53.2296 58.7987 52.0665C59.4167 51.6267 61.4108 50.7553 61.8169 50.7476C62.007 50.7439 62.0616 51.969 62.0616 56.234ZM70.2018 69.1375C72.3425 70.1726 73.805 72.1179 73.8025 73.9266C73.8011 74.8365 72.9747 76.3919 72.0497 77.2255C71.2879 77.912 69.4905 78.8799 68.3739 79.2048L67.9335 79.3332V73.8208V68.3083L68.4717 68.4347C68.7677 68.5042 69.5463 68.8205 70.2018 69.1375Z" fill="#06FF79"/>
</g>
<defs>
<filter id="filter0_d_585_2046" x="0" y="0" width="130" height="130" filterUnits="userSpaceOnUse" color-interpolation-filters="sRGB">
<feFlood flood-opacity="0" result="BackgroundImageFix"/>
<feColorMatrix in="SourceAlpha" type="matrix" values="0 0 0 0 0 0 0 0 0 0 0 0 0 0 0 0 0 0 127 0" result="hardAlpha"/>
<feOffset/>
<feGaussianBlur stdDeviation="7.5"/>
<feComposite in2="hardAlpha" operator="out"/>
<feColorMatrix type="matrix" values="0 0 0 0 0.0463889 0 0 0 0 0.695833 0 0 0 0 0.346333 0 0 0 0.8 0"/>
<feBlend mode="normal" in2="BackgroundImageFix" result="effect1_dropShadow_585_2046"/>
<feBlend mode="normal" in="SourceGraphic" in2="effect1_dropShadow_585_2046" result="shape"/>
</filter>
</defs>
</svg>

<svg width="130" height="130" fill="none" xmlns="http://www.w3.org/2000/svg"><g filter="url(#filter0_d_585_2046)"><path fill-rule="evenodd" clip-rule="evenodd" d="M61.18 15.059c-5.591.574-9.845 1.557-14.342 3.314C35.19 22.926 25.514 31.865 19.968 43.2c-2.382 4.869-3.905 9.92-4.722 15.663-.328 2.301-.328 10.025 0 12.326 1.568 11.02 6.096 20.498 13.541 28.345 7.886 8.31 18.188 13.529 30.045 15.221 2.3.328 10.025.328 12.331 0 5.755-.818 10.809-2.341 15.659-4.718 14.106-6.916 24.252-19.98 27.284-35.131.736-3.678.894-5.427.894-9.88 0-4.453-.158-6.202-.894-9.88-1.972-9.855-7.148-19.2-14.58-26.322-3.698-3.544-7.831-6.41-12.704-8.808-4.674-2.3-9.347-3.75-14.778-4.583-1.97-.303-9.15-.549-10.863-.373zm7.83 5.948c9.746.893 19.131 5.139 26.382 11.935 5.933 5.56 10.613 13.6 12.537 21.534.955 3.941 1.193 6.041 1.193 10.549 0 4.507-.238 6.608-1.193 10.549-1.54 6.353-4.825 12.77-9.22 18.015-5.81 6.931-14.33 12.21-23.158 14.348-3.943.955-6.044 1.193-10.553 1.193-4.514 0-6.609-.238-10.57-1.197-7.748-1.875-15.855-6.544-21.274-12.252-8.919-9.393-13.355-22.006-12.194-34.667 1.046-11.41 6.752-22.367 15.46-29.692 9.083-7.64 20.916-11.384 32.59-10.315zm-8.002 6.082c-8.725.92-16.763 4.798-23.027 11.11-4.605 4.64-7.64 9.697-9.5 15.829-1.211 3.991-1.517 6.21-1.517 10.997 0 4.798.306 7.004 1.529 11.037 1.838 6.061 4.92 11.19 9.489 15.786 11.601 11.672 29.02 14.627 43.75 7.421 10.977-5.37 18.661-15.592 20.888-27.788.59-3.23.59-9.682 0-12.912-3.634-19.9-21.714-33.578-41.612-31.48zm9.449 6.13c6.714 1.222 12.538 4.236 17.237 8.919 4.836 4.819 7.864 10.604 9.142 17.46.466 2.503.466 8.35 0 10.853-1.268 6.807-4.345 12.693-9.13 17.464-4.652 4.639-10.53 7.677-17.28 8.934-2.504.466-8.353.466-10.857 0-6.867-1.278-12.673-4.317-17.47-9.145-14.317-14.407-11.89-38.211 5.05-49.543 4.106-2.747 9.082-4.57 14.262-5.224 1.875-.238 7.087-.075 9.046.282zm-6.787 5.708c-1.213.62-1.503 1.288-1.577 3.648-.066 2.099-.067 2.105-.587 2.216-3.69.795-6.7 2.462-8.634 4.786-3.9 4.683-3.26 10.623 1.59 14.778 1.314 1.125 4.123 2.52 6.034 2.998l1.468.366.052 5.808.051 5.808-.443-.13c-1.114-.324-2.914-1.29-3.662-1.966-1.03-.93-1.57-1.973-1.776-3.437-.278-1.963-1.511-3.053-3.236-2.858-2.8.315-3.434 3.472-1.477 7.348 1.553 3.074 5.089 5.687 9.023 6.668l1.468.366.098 2.028c.115 2.384.42 3.108 1.562 3.69.976.498 1.77.498 2.747 0 1.141-.582 1.447-1.306 1.563-3.69l.097-2.028 1.468-.371c1.562-.395 3.797-1.377 5.028-2.209 1.376-.93 3.156-2.874 3.862-4.217 1.603-3.05 1.7-5.96.297-8.906-1.738-3.648-5.293-6.164-10.214-7.228l-.538-.117V50.7l.538.127c1.225.288 2.96 1.32 3.914 2.328.988 1.044 1.416 1.991 1.418 3.137.002.908.76 2.035 1.665 2.472 1.022.495 1.527.492 2.569-.012 1.885-.912 2.143-3.598.648-6.737-1.738-3.647-5.293-6.163-10.214-7.228l-.538-.116v-1.875c0-2.128-.28-2.96-1.224-3.631-.778-.554-2.202-.665-3.04-.238zm-1.608 17.307v5.491l-.44-.128c-1.117-.325-2.915-1.293-3.677-1.98-.925-.833-1.751-2.388-1.752-3.298-.002-1.5.971-3.09 2.606-4.253.618-.44 2.612-1.31 3.018-1.318.19-.004.245 1.221.245 5.486zm8.14 12.904c2.14 1.035 3.603 2.98 3.6 4.789 0 .91-.827 2.465-1.752 3.298-.762.687-2.56 1.655-3.676 1.98l-.44.128V68.308l.538.127c.296.07 1.074.385 1.73.703z" fill="#06FF79"/></g><defs><filter id="filter0_d_585_2046" x="0" y="0" width="130" height="130" filterUnits="userSpaceOnUse" color-interpolation-filters="sRGB"><feFlood flood-opacity="0" result="BackgroundImageFix"/><feColorMatrix in="SourceAlpha" values="0 0 0 0 0 0 0 0 0 0 0 0 0 0 0 0 0 0 127 0" result="hardAlpha"/><feOffset/><feGaussianBlur stdDeviation="7.5"/><feComposite in2="hardAlpha" operator="out"/><feColorMatrix values="0 0 0 0 0.0463889 0 0 0 0 0.695833 0 0 0 0 0.346333 0 0 0 0.8 0"/><feBlend in2="BackgroundImageFix" result="effect1_dropShadow_585_2046"/><feBlend in="SourceGraphic" in2="effect1_dropShadow_585_2046" result="shape"/></filter></defs></svg>
